assets/trophy-fill.svg

<svg xmlns="http://www.w3.org/2000/svg" fill="none" viewBox="0 0 28 28">
  <path fill="#2A2238" d="M4.35036.875c0-.232064.09245-.454624.25701-.618718C4.77193.0921873 4.99512 0 5.22784 0H22.7774c.2327 0 .4559.0921873.6205.256282.1646.164094.257.386654.257.618718 0 .9415-.0211 1.8375-.0597 2.688.6935.1145 1.3569.36631 1.9512.74057.5943.37425 1.1074.86338 1.5091 1.43854.4017.57517.6838 1.22471.8298 1.91034.1459.68562.1527 1.39345.0199 2.08173-.1328.68832-.4024 1.34312-.793 1.92582-.3906.5827-.8943 1.0815-1.4813 1.467-.587.3855-1.2455.6499-1.9366.7776-.6911.1277-1.4009.1161-2.0874-.0341-1.3865 3.2638-3.2958 4.8598-4.9718 5.2693v3.8027l2.5008.623c.3404.084.6616.2362.9424.4462l3.2256 2.4133c.1473.1102.2562.2638.3111.4391.0549.1753.0531.3634-.0051.5376-.0583.1742-.17.3258-.3194.4331-.1494.1074-.3289.1652-.5131.1652H5.22784c-.18417 0-.36367-.0578-.51307-.1652-.14941-.1073-.26114-.2589-.31938-.4331-.05824-.1742-.06003-.3623-.00512-.5376.05491-.1753.16375-.3289.31108-.4391l3.22561-2.4133c.2808-.21.60195-.3622.94242-.4462l2.50082-.623v-3.8027c-1.67599-.4095-3.58539-2.0055-4.97181-5.271-.68691.151-1.39721.1632-2.08894.0359-.69173-.1273-1.35087-.3915-1.93849-.7771-.58762-.3855-1.0918-.8846-1.482773-1.4676-.390973-.5831-.660807-1.2384-.7935659-1.92726-.1327589-.68882-.1257509-1.39718.0206099-2.08325.146361-.68607.429107-1.33594.83154-1.91123.402429-.57529.916389-1.06433 1.511529-1.43824.59513-.37391 1.25937-.62511 1.95348-.73877-.04131-.89482-.06179-1.79048-.06142-2.68625ZM4.5241 5.32c-.91576.16709-1.72745.69009-2.25651 1.45395-.52906.76385-.73215 1.706-.56459 2.61917.16756.91318.69204 1.72258 1.45807 2.25018.76602.5275 1.71084.73 2.6266.5629-.5844-1.8375-1.03192-4.10545-1.26357-6.8862Zm17.6952 6.8862c.9158.1671 1.8606-.0354 2.6266-.5629.7661-.5276 1.2905-1.337 1.4581-2.25018.1676-.91317-.0355-1.85532-.5646-2.61917-.529-.76386-1.3407-1.28686-2.2565-1.45395-.2334 2.7825-.6809 5.0487-1.2636 6.8862Z"/>
</svg>

<svg width="28" height="28" viewBox="0 0 28 28" fill="none" xmlns="http://www.w3.org/2000/svg">
<path d="M4.35036 0.875C4.35036 0.642936 4.44281 0.420376 4.60737 0.256282C4.77193 0.0921873 4.99512 0 5.22784 0L22.7774 0C23.0101 0 23.2333 0.0921873 23.3979 0.256282C23.5625 0.420376 23.6549 0.642936 23.6549 0.875C23.6549 1.8165 23.6338 2.7125 23.5952 3.563C24.2887 3.6775 24.9521 3.92931 25.5464 4.30357C26.1407 4.67782 26.6538 5.16695 27.0555 5.74211C27.4572 6.31728 27.7393 6.96682 27.8853 7.65245C28.0312 8.33807 28.038 9.0459 27.9052 9.73418C27.7724 10.4225 27.5028 11.0773 27.1122 11.66C26.7216 12.2427 26.2179 12.7415 25.6309 13.127C25.0439 13.5125 24.3854 13.7769 23.6943 13.9046C23.0032 14.0323 22.2934 14.0207 21.6069 13.8705C20.2204 17.1343 18.3111 18.7303 16.6351 19.1398V22.9425L19.1359 23.5655C19.4763 23.6495 19.7975 23.8017 20.0783 24.0117L23.3039 26.425C23.4512 26.5352 23.5601 26.6888 23.615 26.8641C23.6699 27.0394 23.6681 27.2275 23.6099 27.4017C23.5516 27.5759 23.4399 27.7275 23.2905 27.8348C23.1411 27.9422 22.9616 28 22.7774 28H5.22784C5.04367 28 4.86417 27.9422 4.71477 27.8348C4.56536 27.7275 4.45363 27.5759 4.39539 27.4017C4.33715 27.2275 4.33536 27.0394 4.39027 26.8641C4.44518 26.6888 4.55402 26.5352 4.70135 26.425L7.92696 24.0117C8.20776 23.8017 8.52891 23.6495 8.86938 23.5655L11.3702 22.9425V19.1398C9.69421 18.7303 7.78481 17.1343 6.39839 13.8688C5.71148 14.0198 5.00118 14.032 4.30945 13.9047C3.61772 13.7774 2.95858 13.5132 2.37096 13.1276C1.78334 12.7421 1.27916 12.243 0.888187 11.66C0.497214 11.0769 0.22738 10.4216 0.0946211 9.73274C-0.0381378 9.04392 -0.0311298 8.33556 0.115231 7.64949C0.261592 6.96342 0.544338 6.31355 0.946771 5.73826C1.3492 5.16297 1.86316 4.67393 2.4583 4.30002C3.05343 3.92611 3.71767 3.67491 4.41178 3.56125C4.37047 2.66643 4.34999 1.77077 4.35036 0.875V0.875ZM4.5241 5.32C3.60834 5.48709 2.79665 6.01009 2.26759 6.77395C1.73853 7.5378 1.53544 8.47995 1.703 9.39312C1.87056 10.3063 2.39504 11.1157 3.16107 11.6433C3.92709 12.1708 4.87191 12.3733 5.78767 12.2062C5.20327 10.3687 4.75575 8.10075 4.5241 5.32V5.32ZM22.2193 12.2062C23.1351 12.3733 24.0799 12.1708 24.8459 11.6433C25.612 11.1157 26.1364 10.3063 26.304 9.39312C26.4716 8.47995 26.2685 7.5378 25.7394 6.77395C25.2104 6.01009 24.3987 5.48709 23.4829 5.32C23.2495 8.1025 22.802 10.3687 22.2193 12.2062Z" fill="#2A2238"/>
</svg>
